X:114
T:Long Hills of Mourne (reel), The
T:The Old Bush, Captain Rock  
B:CRE1.105 (Cnoic Fhada Mhughdhorna)
F:file ID: cre.1/114long_h
S:John Potts
M:C
L:1/8
Q:180
R:reel
K:G
"D modal"
A2GA cAAG|Adde fdec|A3B c2 (3ABc|d2ed cAdc|
A2GA cAAG|Add^c defg|afge fde^c|dfed cAA2||
efgf edcd|efge c3d|efge afge|d2ed cAA2|
efgf edcd|efge c2 (3efg|afge fde^c|dfed cAdc||

%%%

